ddp-workspace/projects/ddp-pancan/src/assets/images/instagram.svg

<?xml version="1.0" encoding="UTF-8"?>
<svg width="54px" height="54px" viewBox="0 0 54 54" version="1.1" xmlns="http://www.w3.org/2000/svg" xmlns:xlink="http://www.w3.org/1999/xlink">
    <title> Icons / Social / Twitter Copy 2@1x</title>
    <defs>
        <path d="M43.7310379,5.81818182 L20.2683427,5.81818182 C12.3005288,5.81818182 5.81818182,12.3008385 5.81818182,20.2686524 L5.81818182,43.7313476 C5.81818182,51.6994712 12.3005288,58.1818182 20.2683427,58.1818182 L43.7310379,58.1818182 C51.6994712,58.1818182 58.1818182,51.6991615 58.1818182,43.7313476 L58.1818182,20.2686524 C58.1818182,12.3008385 51.6994712,5.81818182 43.7310379,5.81818182 Z M43.7310379,10.4641374 C49.1373816,10.4641374 53.5361723,14.8626184 53.5361723,20.2686524 L53.5361723,43.7313476 C53.5361723,49.1376913 49.1376913,53.5358626 43.7313476,53.5358626 L20.2683427,53.5358626 C14.8623087,53.5358626 10.4641374,49.1376913 10.4641374,43.7313476 L10.4641374,20.2686524 C10.4641374,14.8626184 14.8623087,10.4641374 20.2683427,10.4641374 L43.7310379,10.4641374 Z M32,18.2857143 C24.437829,18.2857143 18.2857143,24.4379702 18.2857143,32.0003148 C18.2857143,39.5623446 24.437829,45.7142857 32,45.7142857 C39.562171,45.7142857 45.7142857,39.5623446 45.7142857,32.0003148 C45.7142857,24.4379702 39.562171,18.2857143 32,18.2857143 Z M32,23.0077328 C36.9583362,23.0077328 40.9920608,27.04155 40.9920608,32 C40.9920608,36.9581352 36.9580214,40.9916375 32,40.9916375 C27.0419786,40.9916375 23.0079392,36.9581352 23.0079392,32 C23.0079392,27.04155 27.0416638,23.0077328 32,23.0077328 Z M46.961039,13.2987013 C45.9783707,13.2987013 45.0130437,13.6965289 44.3190555,14.3935773 C43.6216671,15.0872255 43.2207792,16.0528926 43.2207792,17.038961 C43.2207792,18.0219693 43.6220071,18.9872963 44.3190555,19.6843447 C45.0127037,20.3779929 45.9783707,20.7792208 46.961039,20.7792208 C47.9471074,20.7792208 48.9093743,20.3779929 49.6064227,19.6843447 C50.3034711,18.9872963 50.7012987,18.0216293 50.7012987,17.038961 C50.7012987,16.0528926 50.3034711,15.0872255 49.6064227,14.3935773 C48.9127745,13.6965289 47.9471074,13.2987013 46.961039,13.2987013 Z" id="path-1"></path>
    </defs>
    <g id="Main-Pages" stroke="none" stroke-width="1" fill="none" fill-rule="evenodd">
        <g id="Homepage" transform="translate(-1136.000000, -3365.000000)">
            <g id="-Icons-/-Social-/-Twitter-Copy-2" transform="translate(1131.000000, 3360.000000)">
                <mask id="mask-2" fill="white">
                    <use xlink:href="#path-1"></use>
                </mask>
                <use id="Mask" fill="#6236FF" xlink:href="#path-1"></use>
            </g>
        </g>
    </g>
</svg>

<?xml version="1.0" encoding="UTF-8"?>
<svg version="1.1" viewBox="0 0 54 54" xmlns="http://www.w3.org/2000/svg" xmlns:xlink="http://www.w3.org/1999/xlink">
<title>Icons / Social / Twitter Copy 2@1x</title>
<defs>
<path id="a" d="m43.731 5.8182h-23.463c-7.9678 0-14.45 6.4827-14.45 14.45v23.463c0 7.9681 6.4823 14.45 14.45 14.45h23.463c7.9684 0 14.451-6.4827 14.451-14.45v-23.463c0-7.9678-6.4823-14.45-14.451-14.45zm0 4.646c5.4063 0 9.8051 4.3985 9.8051 9.8045v23.463c0 5.4063-4.3985 9.8045-9.8048 9.8045h-23.463c-5.406 0-9.8042-4.3982-9.8042-9.8045v-23.463c0-5.406 4.3982-9.8045 9.8042-9.8045h23.463zm-11.731 7.8216c-7.5622 0-13.714 6.1523-13.714 13.715 0 7.562 6.1521 13.714 13.714 13.714s13.714-6.1519 13.714-13.714c0-7.5623-6.1521-13.715-13.714-13.715zm0 4.722c4.9583 0 8.9921 4.0338 8.9921 8.9923 0 4.9581-4.034 8.9916-8.9921 8.9916s-8.9921-4.0335-8.9921-8.9916c0-4.9584 4.0337-8.9923 8.9921-8.9923zm14.961-9.709c-0.98267 0-1.948 0.39783-2.642 1.0949-0.69739 0.69365-1.0983 1.6593-1.0983 2.6454 0 0.98301 0.40123 1.9483 1.0983 2.6454 0.69365 0.69365 1.6593 1.0949 2.642 1.0949 0.98607 0 1.9483-0.40123 2.6454-1.0949 0.69705-0.69705 1.0949-1.6627 1.0949-2.6454 0-0.98607-0.39783-1.9517-1.0949-2.6454-0.69365-0.69705-1.6593-1.0949-2.6454-1.0949z"/>
</defs>
<g fill="none" fill-rule="evenodd">
<g transform="translate(-1136 -3365)">
<g transform="translate(1131 3360)">
<mask fill="white">
<use xlink:href="#a"/>
</mask>
<use fill="#6236FF" xlink:href="#a"/>
</g>
</g>
</g>
</svg>
